images/svg/cosmonavt.svg

<svg width="270" height="120" viewBox="0 0 270 120" fill="none" xmlns="http://www.w3.org/2000/svg">
<rect width="270" height="120" rx="4" fill="#F5F4FA"/>
<path d="M169.943 34.8964C169.806 34.4752 169.442 34.1673 169.002 34.103L164.823 33.4951L162.953 29.7081C162.561 28.9101 161.253 28.9101 160.861 29.7081L158.991 33.4951L154.811 34.1031C154.372 34.1673 154.008 34.4742 153.869 34.8965C153.732 35.3189 153.845 35.7832 154.164 36.0924L157.189 39.0407L156.475 43.2034C156.401 43.6409 156.58 44.0831 156.938 44.3445C157.301 44.6082 157.775 44.6408 158.168 44.4331L161.906 42.4672L165.644 44.4331C165.815 44.5229 166.002 44.5672 166.188 44.5672C166.429 44.5672 166.671 44.4926 166.874 44.3444C167.233 44.0831 167.413 43.6408 167.337 43.2033L166.623 39.0405L169.648 36.0923C169.965 35.7819 170.08 35.3187 169.943 34.8964ZM164.556 37.7991C164.282 38.0663 164.155 38.4536 164.221 38.8316L164.638 41.2688L162.45 40.1185C162.28 40.0286 162.093 39.9843 161.906 39.9843C161.72 39.9843 161.534 40.0286 161.362 40.1185L159.174 41.2688L159.591 38.8316C159.657 38.4536 159.531 38.0675 159.256 37.7991L157.484 36.0725L159.932 35.7166C160.312 35.6618 160.64 35.4226 160.811 35.0784L161.905 32.8617L162.999 35.0784C163.17 35.4225 163.497 35.6618 163.878 35.7166L166.325 36.0725L164.556 37.7991Z" fill="#2196F3"/>
<path d="M157.167 69.8923H154.834V72.2257H157.167V69.8923Z" fill="#2196F3"/>
<path d="M157.167 74.5591H154.834V76.8925H157.167V74.5591Z" fill="#2196F3"/>
<path d="M159.5 72.2257H157.167V74.5591H159.5V72.2257Z" fill="#2196F3"/>
<path d="M154.834 72.2257H152.5V74.5591H154.834V72.2257Z" fill="#2196F3"/>
<path d="M149 82.7259H146.667V85.0593H149V82.7259Z" fill="#2196F3"/>
<path d="M149 87.3926H146.667V89.726H149V87.3926Z" fill="#2196F3"/>
<path d="M151.334 85.0593H149V87.3927H151.334V85.0593Z" fill="#2196F3"/>
<path d="M146.667 85.0593H144.333V87.3927H146.667V85.0593Z" fill="#2196F3"/>
<path d="M135 78.0592H132.667V80.3926H135V78.0592Z" fill="#2196F3"/>
<path d="M135 82.7259H132.667V85.0593H135V82.7259Z" fill="#2196F3"/>
<path d="M137.333 80.3925H135V82.7259H137.333V80.3925Z" fill="#2196F3"/>
<path d="M132.667 80.3925H130.333V82.7259H132.667V80.3925Z" fill="#2196F3"/>
<path d="M112.833 38.3918H110.5V40.7252H112.833V38.3918Z" fill="#2196F3"/>
<path d="M112.833 43.0587H110.5V45.3921H112.833V43.0587Z" fill="#2196F3"/>
<path d="M115.166 40.7253H112.833V43.0587H115.166V40.7253Z" fill="#2196F3"/>
<path d="M110.5 40.7253H108.166V43.0587H110.5V40.7253Z" fill="#2196F3"/>
<path d="M154.064 55.9738C153.435 55.1256 152.512 54.5797 151.464 54.4326C150.412 54.2833 149.373 54.5597 148.533 55.2026L145.795 57.3014L145.794 57.3026L141.643 60.4025L138.672 59.2195C143.969 56.843 147.671 51.545 147.671 45.3942C147.671 37.0314 140.84 30.2274 132.444 30.2274C124.047 30.2274 117.216 37.0314 117.216 45.3942C117.216 48.4253 118.123 51.244 119.666 53.6158L113.62 53.5633C113.617 53.5633 113.613 53.5633 113.61 53.5633C113.591 53.5633 113.576 53.5726 113.559 53.5738C113.443 53.5785 113.33 53.6019 113.219 53.6415C113.191 53.652 113.162 53.6579 113.135 53.6706C113.121 53.6765 113.107 53.6776 113.093 53.6846L106.021 57.1764C106.02 57.1764 106.018 57.1764 106.018 57.1775L101.877 59.1693C101.831 59.1891 101.784 59.2159 101.739 59.2463C100.088 60.3452 99.5257 62.5036 100.43 64.2676C100.912 65.2056 101.732 65.8964 102.74 66.2125C103.129 66.3337 103.525 66.3933 103.92 66.3933C104.553 66.3933 105.181 66.2382 105.756 65.9314L108.792 64.3167L113.744 61.7593L116.712 61.7418L104.808 73.5884C104.807 73.5896 104.806 73.5896 104.805 73.5907L101.876 76.5074C101.185 77.1958 100.804 78.1092 100.804 79.0835C100.804 80.0565 101.185 80.9723 101.876 81.6619C102.587 82.3689 103.522 82.7236 104.456 82.7236C105.392 82.7236 106.325 82.3689 107.038 81.6619L109.913 78.7988L113.721 75.9556L115.691 77.9179L111.838 81.7552C111.836 81.7564 111.835 81.7564 111.834 81.7575L108.906 84.6741C108.214 85.3625 107.833 86.276 107.833 87.2502C107.833 88.2233 108.214 89.139 108.906 89.8287C109.616 90.5356 110.552 90.8903 111.486 90.8903C112.421 90.8903 113.357 90.5356 114.068 89.8287L116.998 86.912L121.684 82.2453C121.685 82.2441 121.685 82.243 121.687 82.2417L123.895 80.0542L123.887 80.046C123.901 80.0321 123.921 80.0273 123.935 80.0122L135.235 67.6349L142.828 68.7153C142.883 68.7235 142.938 68.7269 142.993 68.7269C143.134 68.7269 143.27 68.6931 143.402 68.6429C143.441 68.629 143.474 68.6103 143.511 68.5917C143.553 68.5706 143.597 68.559 143.637 68.5322L150.666 63.8655C150.692 63.848 150.706 63.82 150.73 63.8014C150.758 63.7792 150.793 63.7699 150.819 63.7453L153.6 61.1401C155.047 59.7841 155.247 57.5628 154.064 55.9738ZM104.66 63.8722C104.281 64.0752 103.851 64.116 103.439 63.9854C103.03 63.8583 102.699 63.5793 102.505 63.2025C102.153 62.5165 102.357 61.6811 102.974 61.2297L105.848 59.8471L106.54 61.869L106.83 62.7183L104.66 63.8722ZM112.31 59.8741L108.923 61.6241L108.365 59.9907L107.963 58.817L112.397 56.6282L112.31 59.8741ZM145.34 45.3919C145.34 47.4009 144.861 49.2957 144.03 50.9908L134.883 46.8362C134.788 45.5821 134.137 44.4842 133.159 43.8005L136.361 33.1685C141.563 34.823 145.34 39.6752 145.34 45.3919ZM119.552 45.3919C119.552 38.3159 125.336 32.5583 132.446 32.5583C132.999 32.5583 133.54 32.605 134.076 32.6726L130.943 43.0714C130.901 43.0701 130.862 43.0585 130.819 43.0585C128.56 43.0585 126.722 44.8902 126.722 47.1419C126.722 49.3936 128.56 51.2254 130.819 51.2254C132.338 51.2254 133.65 50.3866 134.358 49.1591L142.807 52.9976C140.456 56.1616 136.694 58.2255 132.446 58.2255C125.336 58.2255 119.552 52.4679 119.552 45.3919ZM132.581 47.1419C132.581 48.1068 131.79 48.892 130.819 48.892C129.847 48.892 129.056 48.1068 129.056 47.1419C129.056 46.1771 129.847 45.3919 130.819 45.3919C131.79 45.3919 132.581 46.1771 132.581 47.1419ZM105.392 80.0075C104.875 80.5196 104.038 80.5185 103.523 80.0087C103.274 79.7601 103.138 79.4324 103.138 79.0835C103.138 78.7358 103.274 78.408 103.523 78.1619L105.627 76.0652L107.489 77.9192L105.392 80.0075ZM112.422 88.1743C111.905 88.6865 111.068 88.6877 110.552 88.1756C110.303 87.927 110.167 87.5993 110.167 87.2504C110.167 86.9027 110.303 86.5748 110.552 86.3287L112.658 84.231L113.539 85.1073L114.521 86.085L112.422 88.1743ZM120.038 80.5862C120.037 80.5873 120.036 80.5873 120.035 80.5885L116.174 84.4386L115.293 83.5623L114.311 82.5846L118.168 78.7451C118.168 78.7451 118.168 78.7451 118.168 78.744C118.169 78.7428 118.17 78.7428 118.172 78.7417C118.259 78.6542 118.314 78.5492 118.368 78.4454C118.383 78.4151 118.412 78.3894 118.425 78.3579C118.461 78.2681 118.467 78.1713 118.481 78.0767C118.488 78.0229 118.511 77.9729 118.511 77.9179C118.511 77.8397 118.483 77.764 118.467 77.6869C118.453 77.6169 118.453 77.5457 118.426 77.4781C118.382 77.3685 118.306 77.2717 118.227 77.1771C118.204 77.1514 118.196 77.1187 118.172 77.0942C118.172 77.0942 118.172 77.0942 118.17 77.0942C118.169 77.0931 118.169 77.0906 118.168 77.0896L114.653 73.5895C114.616 73.5522 114.568 73.537 114.526 73.5056C114.464 73.4577 114.405 73.4134 114.336 73.3795C114.269 73.3468 114.201 73.327 114.131 73.3083C114.057 73.2872 113.984 73.2709 113.906 73.2651C113.835 73.2604 113.769 73.2674 113.698 73.2756C113.619 73.2849 113.546 73.2954 113.47 73.3199C113.396 73.3433 113.331 73.3794 113.264 73.4179C113.22 73.4424 113.171 73.4506 113.131 73.4809L109.251 76.3767L107.281 74.4143L112.529 69.1946L122.067 78.576L120.038 80.5862ZM134.954 65.2372C134.921 65.2326 134.889 65.2454 134.855 65.2431C134.77 65.2385 134.689 65.2443 134.603 65.2583C134.537 65.2699 134.474 65.2828 134.411 65.3049C134.336 65.3306 134.269 65.3656 134.2 65.4076C134.134 65.4472 134.075 65.4892 134.018 65.5417C133.99 65.5662 133.956 65.5779 133.93 65.6058L123.653 76.8621L114.185 67.5507L120.382 61.3859C120.839 60.9309 120.841 60.1924 120.386 59.735C120.156 59.5052 119.854 59.392 119.552 59.3932V59.3921L114.698 59.4213L114.759 55.9049L121.549 55.9633C124.317 58.7937 128.176 60.5589 132.446 60.5589C133.403 60.5589 134.336 60.4598 135.245 60.2905C135.332 60.3605 135.419 60.4318 135.528 60.4761L140.8 62.5761L141.133 64.2351L141.523 66.1717L134.954 65.2372ZM143.794 65.6269L143.11 62.219L146.274 59.8564L147.102 60.9554L148.345 62.6051L143.794 65.6269ZM152.005 59.4341L150.173 61.1515L148.136 58.4471L149.954 57.053C150.294 56.7917 150.722 56.6855 151.142 56.7403C151.564 56.7998 151.938 57.0203 152.192 57.3621C152.666 58.0003 152.585 58.8905 152.005 59.4341Z" fill="#212121"/>
<path d="M129.755 65.5651L125.067 60.8984C124.613 60.4446 123.876 60.4446 123.421 60.8984L118.734 65.5651C118.515 65.7856 118.391 66.0819 118.391 66.3922C118.391 66.7026 118.513 67.0001 118.734 67.2194L123.421 71.8861C123.648 72.1124 123.947 72.2256 124.244 72.2256C124.542 72.2256 124.84 72.1124 125.067 71.8861L129.755 67.2194C129.974 67.0001 130.099 66.7026 130.099 66.3922C130.099 66.0819 129.975 65.7844 129.755 65.5651ZM124.244 69.4128L121.211 66.3922L124.244 63.3717L127.279 66.3922L124.244 69.4128Z" fill="#212121"/>
<path d="M137.547 36.0923L136.983 38.3581C137.138 38.3966 140.784 39.3463 140.784 43.0587H143.118C143.118 38.6461 139.474 36.5718 137.547 36.0923Z" fill="#212121"/>
<path d="M143.118 45.3919H140.784V47.7253H143.118V45.3919Z" fill="#212121"/>
</svg>

<svg width="270" height="120" fill="none" xmlns="http://www.w3.org/2000/svg"><rect width="270" height="120" rx="4" fill="#F5F4FA"/><path d="M169.943 34.896a1.166 1.166 0 00-.941-.793l-4.179-.608-1.87-3.787c-.392-.798-1.7-.798-2.092 0l-1.87 3.787-4.18.608a1.164 1.164 0 00-.647 1.99l3.025 2.948-.714 4.162c-.074.438.105.88.463 1.141.363.264.837.297 1.23.09l3.738-1.967 3.738 1.966a1.17 1.17 0 001.23-.089c.359-.26.539-.703.463-1.14l-.714-4.163 3.025-2.949a1.17 1.17 0 00.295-1.196zm-5.387 2.903a1.165 1.165 0 00-.335 1.033l.417 2.437-2.188-1.15a1.163 1.163 0 00-1.088 0l-2.188 1.15.417-2.437a1.164 1.164 0 00-.335-1.033l-1.772-1.727 2.448-.355c.38-.055.708-.294.879-.639l1.094-2.216 1.094 2.216c.171.344.498.584.879.639l2.447.355-1.769 1.727zM157.167 69.892h-2.333v2.334h2.333v-2.334zM157.167 74.56h-2.333v2.332h2.333V74.56zM159.5 72.226h-2.333v2.333h2.333v-2.333zM154.834 72.226H152.5v2.333h2.334v-2.333zM149 82.726h-2.333v2.333H149v-2.333zM149 87.393h-2.333v2.333H149v-2.333zM151.334 85.06H149v2.333h2.334v-2.334zM146.667 85.06h-2.334v2.333h2.334v-2.334zM135 78.06h-2.333v2.333H135v-2.334zM135 82.726h-2.333v2.333H135v-2.333zM137.333 80.392H135v2.334h2.333v-2.334zM132.667 80.392h-2.334v2.334h2.334v-2.334zM112.833 38.392H110.5v2.333h2.333v-2.333zM112.833 43.059H110.5v2.333h2.333V43.06zM115.166 40.725h-2.333v2.334h2.333v-2.334zM110.5 40.725h-2.334v2.334h2.334v-2.334z" fill="#2196F3"/><path d="M154.064 55.974a3.881 3.881 0 00-2.6-1.541 3.887 3.887 0 00-2.931.77l-2.738 2.098-.001.002-4.151 3.1-2.971-1.184c5.297-2.376 8.999-7.674 8.999-13.825 0-8.363-6.831-15.167-15.227-15.167-8.397 0-15.228 6.804-15.228 15.167 0 3.031.907 5.85 2.45 8.222l-6.046-.053h-.01c-.019 0-.034.01-.051.01a1.145 1.145 0 00-.34.069c-.028.01-.057.016-.084.029-.014.005-.028.007-.042.014l-7.072 3.491c-.001 0-.003 0-.003.002l-4.141 1.991a.856.856 0 00-.138.077 3.894 3.894 0 00-1.309 5.022 3.884 3.884 0 002.31 1.945 3.892 3.892 0 003.016-.281l3.036-1.615 4.952-2.558 2.968-.017-11.904 11.846-.003.003-2.929 2.916a3.61 3.61 0 00-1.072 2.576 3.62 3.62 0 001.072 2.579 3.65 3.65 0 002.58 1.062c.936 0 1.869-.355 2.582-1.062l2.875-2.863 3.808-2.843 1.97 1.962-3.853 3.837-.004.002-2.928 2.917a3.608 3.608 0 00-1.073 2.576c0 .973.381 1.889 1.073 2.579a3.649 3.649 0 002.58 1.061c.935 0 1.871-.354 2.582-1.061l2.93-2.917 4.686-4.667.003-.003 2.208-2.188-.008-.008c.014-.014.034-.019.048-.034l11.3-12.377 7.593 1.08c.055.008.11.012.165.012.141 0 .277-.034.409-.084.039-.014.072-.033.109-.051.042-.021.086-.033.126-.06l7.029-4.666c.026-.018.04-.046.064-.065.028-.022.063-.031.089-.056l2.781-2.605a3.892 3.892 0 00.464-5.166zm-49.404 7.898a1.558 1.558 0 01-1.221.113 1.564 1.564 0 01-.465-2.755l2.874-1.383.692 2.022.29.85-2.17 1.153zm7.65-3.998l-3.387 1.75-.558-1.633-.402-1.174 4.434-2.189-.087 3.246zm33.03-14.482c0 2.009-.479 3.904-1.31 5.599l-9.147-4.155a4.067 4.067 0 00-1.724-3.035l3.202-10.633c5.202 1.655 8.979 6.507 8.979 12.224zm-25.788 0c0-7.076 5.784-12.834 12.894-12.834.553 0 1.094.047 1.63.115l-3.133 10.398c-.042 0-.081-.012-.124-.012-2.259 0-4.097 1.831-4.097 4.083 0 2.252 1.838 4.083 4.097 4.083 1.519 0 2.831-.838 3.539-2.066l8.449 3.839c-2.351 3.164-6.113 5.227-10.361 5.227-7.11 0-12.894-5.757-12.894-12.833zm13.029 1.75c0 .965-.791 1.75-1.762 1.75a1.759 1.759 0 01-1.763-1.75c0-.965.791-1.75 1.763-1.75.971 0 1.762.785 1.762 1.75zm-27.189 32.865a1.331 1.331 0 01-1.869.002 1.297 1.297 0 010-1.847l2.104-2.097 1.862 1.854-2.097 2.088zm7.03 8.167a1.33 1.33 0 01-1.87.002 1.297 1.297 0 010-1.847l2.106-2.098.881.876.982.978-2.099 2.09zm7.616-7.588l-.003.002-3.861 3.85-.881-.876-.982-.977 3.857-3.84v-.001l.004-.002c.087-.088.142-.193.196-.297.015-.03.044-.056.057-.087.036-.09.042-.187.056-.281.007-.054.03-.104.03-.16 0-.077-.028-.153-.044-.23-.014-.07-.014-.141-.041-.209a1.165 1.165 0 00-.199-.3c-.023-.027-.031-.06-.055-.084h-.002l-.002-.004-3.515-3.5c-.037-.038-.085-.053-.127-.084a1.119 1.119 0 00-.19-.127 1.107 1.107 0 00-.205-.07 1.112 1.112 0 00-.225-.044 1.125 1.125 0 00-.208.01c-.079.01-.152.02-.228.045-.074.023-.139.06-.206.098-.044.024-.093.033-.133.063l-3.88 2.896-1.97-1.963 5.248-5.22 9.538 9.382-2.029 2.01zm14.916-15.349c-.033-.004-.065.008-.099.006a1.151 1.151 0 00-.252.015 1.065 1.065 0 00-.403.15c-.066.04-.125.081-.182.134-.028.024-.062.036-.088.064l-10.277 11.256-9.468-9.311 6.197-6.165a1.167 1.167 0 00-.83-1.993l-4.854.028.061-3.516 6.79.058a15.201 15.201 0 0010.897 4.596c.957 0 1.89-.1 2.799-.268.087.07.174.14.283.185l5.272 2.1.333 1.66.39 1.936-6.569-.935zm8.84.39l-.684-3.408 3.164-2.363.828 1.1 1.243 1.65-4.551 3.02zm8.211-6.193l-1.832 1.718-2.037-2.705 1.818-1.394c.34-.261.768-.367 1.188-.313.422.06.796.28 1.05.622a1.562 1.562 0 01-.187 2.072z" fill="#212121"/><path d="M129.755 65.565l-4.688-4.667a1.165 1.165 0 00-1.646 0l-4.687 4.667c-.219.22-.343.517-.343.827 0 .31.122.608.343.827l4.687 4.667a1.164 1.164 0 001.646 0l4.688-4.667a1.168 1.168 0 000-1.654zm-5.511 3.848l-3.033-3.02 3.033-3.021 3.035 3.02-3.035 3.02zM137.547 36.092l-.564 2.266c.155.039 3.801.988 3.801 4.7h2.334c0-4.412-3.644-6.486-5.571-6.966zM143.118 45.392h-2.334v2.333h2.334v-2.333z" fill="#212121"/></svg>
